poi/svg/2405.svg

<?xml version="1.0" encoding="UTF-8" standalone="no"?>
<svg
   xmlns:dc="http://purl.org/dc/elements/1.1/"
   xmlns:cc="http://creativecommons.org/ns#"
   xmlns:rdf="http://www.w3.org/1999/02/22-rdf-syntax-ns#"
   xmlns:svg="http://www.w3.org/2000/svg"
   xmlns="http://www.w3.org/2000/svg"
   xmlns:sodipodi="http://sodipodi.sourceforge.net/DTD/sodipodi-0.dtd"
   xmlns:inkscape="http://www.inkscape.org/namespaces/inkscape"
   inkscape:version="1.0 (4035a4fb49, 2020-05-01)"
   sodipodi:docname="2405.svg"
   id="svg20"
   version="1.2"
   viewBox="0 0 42.519639 42.519639"
   height="14.999999mm"
   width="14.999999mm">
  <metadata
     id="metadata24">
    <rdf:RDF>
      <cc:Work
         rdf:about="">
        <dc:format>image/svg+xml</dc:format>
        <dc:type
           rdf:resource="http://purl.org/dc/dcmitype/StillImage" />
        <dc:title>Qt SVG Document</dc:title>
      </cc:Work>
    </rdf:RDF>
  </metadata>
  <sodipodi:namedview
     inkscape:current-layer="svg20"
     inkscape:window-maximized="0"
     inkscape:window-y="0"
     inkscape:window-x="0"
     inkscape:cy="28.346482"
     inkscape:cx="28.346482"
     inkscape:zoom="5.8410537"
     showgrid="false"
     id="namedview22"
     inkscape:window-height="480"
     inkscape:window-width="1034"
     inkscape:pageshadow="2"
     inkscape:pageopacity="0"
     guidetolerance="10"
     gridtolerance="10"
     objecttolerance="10"
     borderopacity="1"
     bordercolor="#666666"
     pagecolor="#ffffff" />
  <title
     id="title2">Qt SVG Document</title>
  <desc
     id="desc4">Generated with Qt</desc>
  <defs
     id="defs6" />
  <g
     transform="translate(5.25984,5.25984)"
     id="g18"
     stroke-linejoin="bevel"
     stroke-linecap="square"
     fill-rule="evenodd"
     stroke-width="1"
     stroke="#000000"
     fill="none">
    <g
       id="g10"
       font-style="normal"
       font-weight="400"
       font-size="7.8px"
       font-family="'MS Shell Dlg 2'"
       stroke="none"
       fill-opacity="1"
       fill="#ec1d24">
      <path
         id="path8"
         d="M 37.2598,16 C 37.2598,27.7415 27.7415,37.2598 16,37.2598 4.25851,37.2598 -5.25984,27.7415 -5.25984,16 -5.25984,4.25851 4.25851,-5.25984 16,-5.25984 27.7415,-5.25984 37.2598,4.25851 37.2598,16"
         fill-rule="evenodd"
         vector-effect="non-scaling-stroke" />
    </g>
    <g
       id="g14"
       font-style="normal"
       font-weight="400"
       font-size="7.8px"
       font-family="'MS Shell Dlg 2'"
       transform="translate(14.8661,9.19685)"
       stroke="none"
       fill-opacity="0.94902"
       fill="#ffffff">
      <path
         id="path12"
         d="M 3.87549,6.48242 -12.3755,11.2905 c -0.07,0.028 -0.1365,0.0455 -0.1995,0.0525 -0.0629,0.007 -0.1294,0.0105 -0.1994,0.0105 -0.294,0 -0.5634,-0.091 -0.8084,-0.2729 -0.2449,-0.182 -0.4164,-0.42 -0.5144,-0.7139 -0.1119,-0.3639 -0.0735,-0.71387 0.1155,-1.04981 0.189,-0.33593 0.4654,-0.55989 0.8294,-0.67187 L 3.07764,3.81592 2.2168,0.981445 9.60742,-1.22314 12.106,7.07031 4.71533,9.2749 3.87549,6.48242 m 1.34375,4.01028 7.09666,-2.14163 0.336,1.04981 c 0.0419,0.18197 0.028,0.34294 -0.042,0.48291 -0.084,0.16801 -0.217,0.27291 -0.399,0.31491 l -5.87887,1.7637 c -0.02799,0.014 -0.05949,0.021 -0.09448,0.021 -0.03499,0 -0.06649,0 -0.09448,0 -0.13998,0 -0.26945,-0.042 -0.38843,-0.126 C 5.63566,11.7734 5.56217,11.6685 5.53418,11.5425 L 5.21924,10.4927 M 9.12451,-2.41992 2.00684,-0.27832 1.73389,-1.13916 C 1.6779,-1.29313 1.69189,-1.4611 1.77588,-1.64307 1.88786,-1.79704 2.01383,-1.89502 2.15381,-1.93701 l 5.9209,-1.74268 c 0.04199,-0.01399 0.09798,-0.02099 0.16797,-0.02099 0.32194,0 0.5249,0.14697 0.60888,0.44091 l 0.27295,0.83985 M 13.3657,16.6655 c 0.168,0 0.315,0.0595 0.4409,0.1785 0.126,0.119 0.189,0.2694 0.189,0.4514 0,0.196 -0.063,0.3499 -0.189,0.4619 -0.1259,0.112 -0.2729,0.168 -0.4409,0.168 H 12.064 2.51074 1.20898 c -0.18196,0 -0.335933,-0.056 -0.46191,-0.168 -0.125976,-0.112 -0.188965,-0.2659 -0.188965,-0.4619 0,-0.182 0.062989,-0.3324 0.188965,-0.4514 0.125977,-0.119 0.27995,-0.1785 0.46191,-0.1785 h 0.65088 v -0.7138 c 0,-0.196 0.05949,-0.35 0.17847,-0.462 0.11898,-0.1119 0.27645,-0.1679 0.47241,-0.1679 H 12.064 c 0.1539,0 0.2939,0.056 0.4199,0.1679 0.126,0.112 0.189,0.266 0.189,0.462 v 0.7138 h 0.6928"
         fill-rule="evenodd"
         vector-effect="none" />
    </g>
    <g
       id="g16"
       font-style="normal"
       font-weight="400"
       font-size="7.8px"
       font-family="'MS Shell Dlg 2'"
       stroke="none"
       fill-opacity="1"
       fill="#ec1d24" />
  </g>
</svg>

<?xml version="1.0" encoding="UTF-8" standalone="no"?>
<svg width="11.2889mm" height="11.2889mm"
 viewBox="0 0 32 32"
 xmlns="http://www.w3.org/2000/svg" xmlns:xlink="http://www.w3.org/1999/xlink"  version="1.2" baseProfile="tiny">
<title>Qt SVG Document</title>
<desc>Generated with Qt</desc>
<defs>
</defs>
<g fill="none" stroke="black" stroke-width="1" fill-rule="evenodd" stroke-linecap="square" stroke-linejoin="bevel" >

<g fill="#ec1d24" fill-opacity="1" stroke="none" transform="matrix(1,0,0,1,0,0)"
font-family="MS Shell Dlg 2" font-size="7.8" font-weight="400" font-style="normal" 
>
<path vector-effect="non-scaling-stroke" fill-rule="evenodd" d="M37.2598,16 C37.2598,27.7415 27.7415,37.2598 16,37.2598 C4.25851,37.2598 -5.25984,27.7415 -5.25984,16 C-5.25984,4.25851 4.25851,-5.25984 16,-5.25984 C27.7415,-5.25984 37.2598,4.25851 37.2598,16 "/>
</g>

<g fill="#ffffff" fill-opacity="0.94902" stroke="none" transform="matrix(1,0,0,1,14.8661,9.19685)"
font-family="MS Shell Dlg 2" font-size="7.8" font-weight="400" font-style="normal" 
>
<path vector-effect="none" fill-rule="evenodd" d="M3.87549,6.48242 L-12.3755,11.2905 C-12.4455,11.3185 -12.512,11.336 -12.575,11.343 C-12.6379,11.35 -12.7044,11.3535 -12.7744,11.3535 C-13.0684,11.3535 -13.3378,11.2625 -13.5828,11.0806 C-13.8277,10.8986 -13.9992,10.6606 -14.0972,10.3667 C-14.2091,10.0028 -14.1707,9.65283 -13.9817,9.31689 C-13.7927,8.98096 -13.5163,8.757 -13.1523,8.64502 L3.07764,3.81592 L2.2168,0.981445 L9.60742,-1.22314 L12.106,7.07031 L4.71533,9.2749 L3.87549,6.48242 M5.21924,10.4927 L12.3159,8.35107 L12.6519,9.40088 C12.6938,9.58285 12.6799,9.74382 12.6099,9.88379 C12.5259,10.0518 12.3929,10.1567 12.2109,10.1987 L6.33203,11.9624 C6.30404,11.9764 6.27254,11.9834 6.23755,11.9834 C6.20256,11.9834 6.17106,11.9834 6.14307,11.9834 C6.00309,11.9834 5.87362,11.9414 5.75464,11.8574 C5.63566,11.7734 5.56217,11.6685 5.53418,11.5425 L5.21924,10.4927 M9.12451,-2.41992 L2.00684,-0.27832 L1.73389,-1.13916 C1.6779,-1.29313 1.69189,-1.4611 1.77588,-1.64307 C1.88786,-1.79704 2.01383,-1.89502 2.15381,-1.93701 L8.07471,-3.67969 C8.1167,-3.69368 8.17269,-3.70068 8.24268,-3.70068 C8.56462,-3.70068 8.76758,-3.55371 8.85156,-3.25977 L9.12451,-2.41992 M13.3657,16.6655 C13.5337,16.6655 13.6807,16.725 13.8066,16.844 C13.9326,16.963 13.9956,17.1134 13.9956,17.2954 C13.9956,17.4914 13.9326,17.6453 13.8066,17.7573 C13.6807,17.8693 13.5337,17.9253 13.3657,17.9253 L12.064,17.9253 L2.51074,17.9253 L1.20898,17.9253 C1.02702,17.9253 0.873047,17.8693 0.74707,17.7573 C0.621094,17.6453 0.558105,17.4914 0.558105,17.2954 C0.558105,17.1134 0.621094,16.963 0.74707,16.844 C0.873047,16.725 1.02702,16.6655 1.20898,16.6655 L1.85986,16.6655 L1.85986,15.9517 C1.85986,15.7557 1.91935,15.6017 2.03833,15.4897 C2.15731,15.3778 2.31478,15.3218 2.51074,15.3218 L12.064,15.3218 C12.2179,15.3218 12.3579,15.3778 12.4839,15.4897 C12.6099,15.6017 12.6729,15.7557 12.6729,15.9517 L12.6729,16.6655 L13.3657,16.6655"/>
</g>

<g fill="#ec1d24" fill-opacity="1" stroke="none" transform="matrix(1,0,0,1,0,0)"
font-family="MS Shell Dlg 2" font-size="7.8" font-weight="400" font-style="normal" 
>
</g>
</g>
</svg>
